X:1
T:Missa 4or vocum 2us tonus
T:Joan Cererols (1618-1676)
T:1. Kyrie
T:Copyright © 2008 by the Choral Public Domain Library (http://www.cpdl.org) Edition may be freely distributed, duplicated, performed, or recorded.
T:Copyright © 2008 by the Choral Public Domain Library (http://www.cpdl.org) Edition may be freely distributed, duplicated, performed, or recorded.
T:Copyright © 2008 by the Choral Public Domain Library (http://www.cpdl.org) Edition may be freely distributed, duplicated, performed, or recorded.
T:Copyright © 2008 by the Choral Public Domain Library (http://www.cpdl.org) Edition may be freely distributed, duplicated, performed, or recorded.
T:Copyright © 2008 by the Choral Public Domain Library (http://www.cpdl.org) Edition may be freely distributed, duplicated, performed, or recorded.
T:Copyright © 2008 by the Choral Public Domain Library (http://www.cpdl.org) Edition may be freely distributed, duplicated, performed, or recorded.
T:Copyright © 2008 by the Choral Public Domain Library (http://www.cpdl.org) Edition may be freely distributed, duplicated, performed, or recorded.
T:Copyright © 2008 by the Choral Public Domain Library (http://www.cpdl.org) Edition may be freely distributed, duplicated, performed, or recorded.
T:Copyright © 2008 by the Choral Public Domain Library (http://www.cpdl.org) Edition may be freely distributed, duplicated, performed, or recorded.
T:Copyright © 2008 by the Choral Public Domain Library (http://www.cpdl.org) Edition may be freely distributed, duplicated, performed, or recorded.
T:Copyright © 2008 by the Choral Public Domain Library (http://www.cpdl.org) Edition may be freely distributed, duplicated, performed, or recorded.
T:Copyright © 2008 by the Choral Public Domain Library (http://www.cpdl.org) Edition may be freely distributed, duplicated, performed, or recorded.
T:Copyright © 2008 by the Choral Public Domain Library (http://www.cpdl.org) Edition may be freely distributed, duplicated, performed, or recorded.
T:Copyright © 2008 by the Choral Public Domain Library (http://www.cpdl.org) Edition may be freely distributed, duplicated, performed, or recorded.
T:Copyright © 2008 by the Choral Public Domain Library (http://www.cpdl.org) Edition may be freely distributed, duplicated, performed, or recorded.
T:Copyright © 2008 by the Choral Public Domain Library (http://www.cpdl.org) Edition may be freely distributed, duplicated, performed, or recorded.
T:Copyright © 2008 by the Choral Public Domain Library (http://www.cpdl.org) Edition may be freely distributed, duplicated, performed, or recorded.
T:Copyright © 2008 by the Choral Public Domain Library (http://www.cpdl.org) Edition may be freely distributed, duplicated, performed, or recorded.
T:Copyright © 2008 by the Choral Public Domain Library (http://www.cpdl.org) Edition may be freely distributed, duplicated, performed, or recorded.
T:Copyright © 2008 by the Choral Public Domain Library (http://www.cpdl.org) Edition may be freely distributed, duplicated, performed, or recorded.
T:Copyright © 2008 by the Choral Public Domain Library (http://www.cpdl.org) Edition may be freely distributed, duplicated, performed, or recorded.
T:Copyright © 2008 by the Choral Public Domain Library (http://www.cpdl.org) Edition may be freely distributed, duplicated, performed, or recorded.
T:Copyright © 2008 by the Choral Public Domain Library (http://www.cpdl.org) Edition may be freely distributed, duplicated, performed, or recorded.
T:Copyright © 2008 by the Choral Public Domain Library (http://www.cpdl.org) Edition may be freely distributed, duplicated, performed, or recorded.
T:Copyright © 2008 by the Choral Public Domain Library (http://www.cpdl.org) Edition may be freely distributed, duplicated, performed, or recorded.
T:Copyright © 2008 by the Choral Public Domain Library (http://www.cpdl.org) Edition may be freely distributed, duplicated, performed, or recorded.
T:Copyright © 2008 by the Choral Public Domain Library (http://www.cpdl.org) Edition may be freely distributed, duplicated, performed, or recorded.
T:Copyright © 2008 by the Choral Public Domain Library (http://www.cpdl.org) Edition may be freely distributed, duplicated, performed, or recorded.
Z:Copyright © 2008 by the Choral Public Domain Library (http://www.cpdl.org)
Z:Edition may be freely distributed, duplicated, performed, or recorded.
%%score [ 1 2 3 4 ]
L:1/8
Q:1/4=120
M:2/2
K:F
V:1 treble nm="Tiple"
V:2 treble nm="Contralt"
V:3 treble nm="Tenor"
V:4 bass nm="Baix"
V:1
 G6 G2 | F2 DE FGAB | cG c3 BGA | BG B3 ABG | A4 z4 | z8 | G6 G2 | F2 DE FGAB | c3 B AG A2 | %9
w: |||||||||
w: Ky- ri-|e e- * * * * *||* * * * lei- *|son.||Ky- ri-|e e- * * * * *|* * * * lei-|
w: |||||||||
 D4 z2 G2- | G2 G2 A4 | D4 GABG | A4 c2 d2- | dcBA G2 A2 | ^F2 G4 F2 | G8 || z8 | z8 | z2 D3 C DE | %19
w: ||||||||||
w: son, Ky-|* ri- e|e- lei- * * *|son, e- lei-|||son.|||Chri- ste e- *|
w: ||||||||||
 F3 E FDEF | G6 F2 | A6 A2 | G2 G3 F GA | B3 A BGAB | c2 =B2 c2 F2 | G4 ^F2 G2 | A2 B2 A2 G2- | %27
w: ||||||||
w: ||* lei-|son. Chri- ste e- *||* lei- son. Chri-|ste e- *||
w: ||||||||
 G2 ^FE F4 || D3 E FGAB | c2 B2 A4- | A2 A2 G4 | D3 E FGAB | c2 B2 d3 c | BAGF EF G2- | G2 ^F2 G4 | %35
w: ||||||||
w: * * * son.|Ky- ri- e * * *|* * e-|* lei- son.|Ky- ri- e * * *||* * * * * * e-|* * lei-|
w: ||||||||
 F4 z4 | D3 E FGAB | c2 B2 A4 | B2 AG F4 | DEFD EF G2- | G2 ^FE F2 F2 | G8 || G3 F GA | B2 B2 A4- | %44
w: |||||||Et in ter- ra|pax ho- mi-|
w: son.|Ky- ri- e * * *||e- lei- * son,|e- * * * * * *|* * * * lei-|son.|||
w: |||||||||
 A2 d2 G2 A2 | G6 G2 | G4 G2 G2- | G2 ^F2 G2 B2- | BB A3 G G2- | G2 ^F2 G4 | d2 c4 B2 | %51
w: * ni- bus, ho-|mi- ni-|bus, ho- mi-|* ni- bus bo-|* næ vo- lun- ta-|* * tis.|Lau- da- mus|
w: |||||||
w: |||||||
 A2 G2 ^F2 B2 | A2 G2 ^F2 GG | A2 G2 ^F2 G2 | A2 G2 A2 G2 | ^F2 DE =FGAB | c2 B2 A2 d2- | %57
w: te. Be- ne- di-|ci- mus te. A- do-|ra- mus te. Glo-|ri- fi- ca- mus|te. Gra- * * * * *|* ti- as a-|
w: ||||||
w: ||||||
 dcBA G2 ^F2 | G4 F2 B2- | B2 A2 B4 | z2 F2 E2 F2- | F2 E2 FGAF | G2 A2 G4 | F4 z2 c2 | %64
w: * * * * gi- mus|ti- * *|* * bi|pro- pter ma-|* gnam glo- * * *|ri- am tu-|am, ma-|
w: |||||||
w: |||||||
 =B2 c3 c _B2 | A4 B4 | z8 | z6 G2- | GG G2 B2 B2 | A2 G2 A4 | A4 z2 d2 | ^c2 d3 d =c2 | c2 B2 A4 | %73
w: gnam glo- ri- am|tu- am.||Do-|* mi- ne De- us,|Rex cae- le-|stis, De-|us Pa- ter o-|mni- po- tens,|
w: |||||||||
w: |||||||||
 G3 G ^F2 G2- | G2 ^F2 z4 | G3 A B2 AG | A4 z4 | z4 d3 c | ABcB A2 G2- | G2 G4 ^F2 | G4 D4 | %81
w: Do- mi- ne Fi-|* li|u- ni- ge- ni- *|te,|Je- su|Chri- * * * * ste,|* Je- su|Chri- ste.|
w: ||||||||
w: ||||||||
 z6 d2- | dcBA G2 A2 | ^F2 G4 =F2 | E2 A2 F2 B2 | G2 c2 A4 | z6 B2- | BB A2 G2 F2 | E8 | ^F4 z4 || %90
w: Do-|* * * * mi- ne|De * *|us A- gnus, A-|gnus De- i,|Fi-|* li- us Pa- *||tris.|
w: |||||||||
w: |||||||||
 ^F4 G4 | A2 B2 G2 G2- | G2 ^F2 G2 G2- | GABG A4- | A4 G2 A2- | A2 G2 A2 A2 | AGAB c2 c2 | %97
w: Qui tol-|lis pec- ca- ta|* mun- di, mi-|* se- re- re no-||* * bis. Qui|tol- * * * lis pec-|
w: |||||||
w: |||||||
 B2 G2 A4 | A4 DEFG | A2 G4 ^F2 | G2 G3 FGA | B2 B2 AGAB | c8 | z4 A2 c2- | cBGA B3 A/G/ | %105
w: ca- ta mun-|di, su- * * *|* * sci-|pe de- pre- ca- ti-|o- nem no- * * *|stram.|Qui se-||
w: ||||||||
w: ||||||||
 F2 B2 A2 E2- | EF G4 ^F2 | G4 z2 A2 | B2 AG B2 A2- | A2 G4 F2 | z8 | z6 A2 | =B2 c4 _B2 | A8 | %114
w: ||des ad|dex- te- ram Pa- *|* * tris,||mi-|se- re- re|no-|
w: |||||||||
w: |||||||||
 G3 E ^F2 G2- | G2 F2 E2 F2- | FD B4 ^F2 | G2 DE FGAB | c2 B2 A4- | A4 z2 G2 | B2 A4 G2- | %121
w: * * bis, mi-|* se- re- *|* re no- *|bis. Quo- * * * * *|* ni- am|* tu|so- lus san-|
w: |||||||
w: |||||||
 G2 F2 B4 | AGAF GA B2 | G4 c3 c | F6 B2 | B4 B2 G2 | A3 A G2 G2- | G2 G2 ^F2 G2- | G2 ^F2 G4 | %129
w: * ctus. Tu|so- * * * * * *|lus Do- mi-|nus. Tu|so- lus al-|tis- si- mus, Je-|* su Chri- *|* * ste.|
w: ||||||||
w: ||||||||
 z6 c2 | c2 c2 BG B2- | BABG A4- | A2 A2 G2 G2 | G2 B2 c4- | c2 c2 B2 d2 | B3 A G4 | z8 | z8 | %138
w: Cum|San- cto Spi- * *||* ri- tu, cum|San- cto Spi-|* ri- tu in|glo- ri- a,|||
w: |||||||||
w: |||||||||
 z2 G2 F2 DE | FGAB c2 B2 | A2 A4 A2 | A2 B2 c2 G2- | GFGA B2 A2- | AGAB cBAG | ^F2 G4 F2 | G8 || %146
w: in glo- * *|* * * * * ri-|a De- i|Pa- * tris. A-||||men.|
w: ||||||||
w: ||||||||
 G4 G2 G2 | F2 DE FGAB | c3 B A2 G2- | GABA G4 | z2 G2 A2 A2 | =BcdB c2 c2 | A2 d2 c4 | z8 | %154
w: ||||||||
w: ||||||||
w: Pa- trem o-|mni- po- * * * * *|ten- * * *|* * * * tem,|fac- to- rem|cae- * * * li et|ter- * rae||
 z2 G4 A2 | B2 AG B2 A2 | G2 D3 E F2 | G4 G2 G2 | F4 z2 A2- | AGAB c2 c2 | B2 G3 A BG | A2 B4 A2 | %162
w: ||||||||
w: ||||||||
w: vi- si-|bi- li- um o- mni-|um, et in- vi-|si- bi- li-|um, Et|* in u- num Do- mi-|num Je- * sum *|Chri- * *|
 B4 z2 B2- | BB B4 A2 | AG G4 ^F2 | G6 ^F2 | G2 B3 ABc | d6 c2- | cB A2 G2 c2 | =B2 c3 c _B2 | %170
w: ||||||||
w: ||||||||
w: stum, Fi-|* li- um De-|* i u- ni-|ge- ni-|tum. Et ex Pa- tre|na- *|* * * tum an-|te o- mni- a|
 A3 G FE F2 | E6 E2 | D2 G2 ^F2 G2- | GG F2 E2 A2- | A2 G4 ^F2 | G2 G2 F2 B2 | A2 G4 F2- | %177
w: |||||||
w: |||||||
w: sae- * * * *|* cu-|la, an- te o-|* mni- a sae- *|* * cu-|la. De- um de|De- * *|
 F2 G4 ^F2 | G2 B2 A2 G2- | G2 ^F4 G2- | G2 ^F2 G2 B2 | (A6 G2) | F2 E2 F4 | F2 F2 G2 B2- | %184
w: |||||||
w: |||||||
w: |o, lu- men de|* lu- *|* * * mi-|ne, *|De- um- ve-|rum de De- o|
 B2 A2 B4 | c3 c F2 B2 | A2 F2 c3 c | F2 B2 A3 G | FE F2 E2 E2- | EDEF G2 G2 | G4 A2 B2 | %191
w: |||||||
w: |||||||
w: * ve- ro.|Ge- ni- tum, non|fa ctum, Ge- ni-|tum, non fa- *|* * * ctum, con-|* sub- stan- ti- a- lem|Pa- * *|
 c2 c2 =B2 c2- | cc B2 A3 G | AB c2 F2 B2 | A4 B4 | z2 F2 G2 A2 | (G4 F4) | E2 F4 E2 | %198
w: |||||||
w: |||||||
w: tri: per quem o-|* mni- a fa- *||cta sunt.|Qui pro- pter|nos *|ho- * mi-|
 F2 G2 F2 D2 | E2 F2 G4 | A2 (B4 A2) | B4 z2 B2 | B3 A GFGA | BF B4 A2 | BF B4 G2- | GG c2 A4 | %206
w: ||||||||
w: ||||||||
w: nes et pro- pter|no- * stram|sa- lu- *|tem de-|scen- * * * * *||dit, de- scen- dit|* de cae- lis,|
 A2 d3 cBA | B2 A2 G2 A2 | ^F2 G4 F2 | G8 || G4 AA B2- | B2 A2 G4 | F4 G2 A2 | D2 G2 C2 F2 | %214
w: ||||||||
w: ||||||||
w: de- scen- * * *|* * dit de|cae- * *|lis.|Et in- car- na-|* tus est,|et in- car-|na tus, in- car-|
 F3 F F4 | F2 G3 G G2 | ^F2 G2 z2 G2 | F2 FF G4- | G2 ^F2 z4 | AA^FF G2 D2 | A4 B2 A2 | A4 z4 | %222
w: ||||||||
w: ||||||||
w: na- tus est|de Spi- ri- tu|San- cto, de|Spi- ri- tu San-|* cto|ex Ma- ri- a Vir- gi-|ne Vir- gi-|ne|
 z8 | z4 z2 B2- | B2 AG ^F2 G2- | G2 F4 _E2 | D8 || G3 F GA B2- | BABG A4- | A4 G2 c2- | %230
w: ||||||||
w: ||||||||
w: |et|* ho- mo fa- *|* * ctus|est.|Cru- ci- fi- xus et-|* i- am pro no-|* bis, pro|
 c2 B2 A2 G2- | G2 ^F2 G4 | z4 A2 d2- | dc B2 A2 c2- | c2 =B2 c2 G2 | A2 F2 G4 | A4 c3 B | %237
w: |||||||
w: |||||||
w: * * no- *|* * bis:|sub Pon-|* ti- o Pi- la-|||to pas- sus,|
 cA B3 A G2 | ^F2 G4 F2 | G2 G2 B2 B2 | A8 | ^F2 G3 =FDE | FGAF G4 | G2 G2 A4- | A4 F2 G2- | %245
w: ||||||||
w: ||||||||
w: et se- pul- * *|* * tus|est. Et re- sur-|re-|xit ter- * * *||ti- a di-||
 G2 ^F2 G4 | z2 A2 B2 AG | B2 A4 G2- | G2 F2 _E4 | D4 z4 | z2 F2 F2 B2- | BB A2 G4 | A8 | %253
w: ||||||||
w: ||||||||
w: * * e,|se- cun- dum Scri-|ptu- * *||ras.|Et a- scen-|* dit in cae-|lum:|
 z4 z2 c2- | cc A2 c2 dd | c2 c2 c2 c2- | cc B2 A4 | B4 z4 | z2 B2 A2 G2 | ^F2 d4 c2- | %260
w: |||||||
w: |||||||
w: se-|* det ad dex- te- ram|Pa- tris, ad dex-|* te- ram Pa-|tris.|Et i- te-|rum ven- tu-|
 c2 B2 A2 A2 | G4 F4 | _E4 D4 | z2 B4 B2 | A2 A2 G4 | ^F2 G2 A4 | G4 ^F2 =F2- | F2 B2 B2 A2 | %268
w: ||||||||
w: ||||||||
w: * rus est cum|glo- *|ri- a,|ju- di-|ca- re vi-|vos et mor-|tu- os: cu-|* jus re- *|
 B2 B4 A2- | A2 G2 (^F2 G2) | A2 A2 B2 G2 | A4 G4 | _E8 | D8 || ^F4 F2 G2- | GG A2 B2 A2 | %276
w: ||||||||
w: ||||||||
w: gni non e-|* rit fi- *|nis, non e- rit|fi- nis,|fi-|nis.|Et in Spi-|* ri- tum San- ctum,|
 G3 A ^F4 | z8 | z2 D2 D2 d2- | dcBA B2 c2- | cBAG ^F2 G2- | GG F2 E2 E2 | D4 D4- | D4 z2 D2 | %284
w: ||||||||
w: ||||||||
w: Do- mi- num,||qui ex Pa-||* * * * tre Fi-|* li- o- que pro-|ce- dit.|* Qui|
 E2 F3 F E2 | D2 D2 C4 | z8 | G4 F2 DE | FGAB c2 c2 | F4 G4 | C4 z2 F2 | F2 G3 G F2 | %292
w: ||||||||
w: ||||||||
w: cum Pa- tre et|Fi- li- o||si- mul- ad- *|* * * * o- ra-||tur, et|con- glo- ri- fi-|
 (D2 E2) A2 A2- | A2 A4 G2- | G2 ^F2 G2 G2- | G2 ^F2 GABc | d2 d4 B2 | c8 | F2 B2 GA B2- | %299
w: |||||||
w: |||||||
w: ca- * tur: qui|* lo- cu-|* tus est per|* Pro- phe- * * *|tas, per Pro-|phe-|tas. Et u- nam san-|
 B2 A2 B2 B2 | G2 F2 F2 B2 | GA B4 A2 | B2 B2 G2 F2 | F4 z2 B2 | B6 G2 | G2 G3 G A2 | ^F2 G4 F2 | %307
w: ||||||||
w: ||||||||
w: * * ctam, ca-|tho- li- cam, et|a- po- sto- li-|cam Ec- cle- si-|am. Con-|fi- te-|or u- num ba-|ptis- * *|
 G2 G3 FGA | B2 B2 A2 A2 | d4 G2 A2 | G8 | F4 z4 | G2 G2 B4- | B2 AG A2 A2- | AGEF G3 F | %315
w: ||||||||
w: ||||||||
w: ma in re- mis- si-|o- nem pec- ca-|to- * *||rum.|Et ex- spe-|* * * cto re-|* sur- re- xi- o- *|
 DEFG A2 c2- | cBGA B3 A | (G2 ^F2) G4 | ^F2 G4 F2 | G4 z2 A2 | B2 AG B2 A2 | G2 c2 B2 B2 | %322
w: |||||||
w: |||||||
w: * * * * nem, re-|* sur- re- cti- o- nem|mor- * tu-|o- * *|rum. Et|vi- tam ven- tu- ri|sae- cu- li, ven-|
 B2 c2 (G3 F) | _E4 D4 | z2 A4 G2- | G2 F2 E4 | E2 A2 A2 B2- | BAGF G2 A2- | AGFE F2 G2- | %329
w: |||||||
w: |||||||
w: tu- ri sae- *|cu- li,|ven- tu-|* ri sae-|* cu- li. A-|* * * men, a- *|* * * * * men,|
 G2 A3 GFE | F4 B2 AG | ^F2 G4 F2 | G8 || G3 FGA B2- | BABG A4 |"^[Sanctus]" z8 | G6 G2 | %337
w: ||||||||
w: ||||San- * * * *|* * * * ctus,||San- ctus,|
w: * a- * * *|men, a- * *||men.|||||
 F2 DE FGAB | cG c3 BcA | B2 c2 d2 c2- | cc =B2 cG _B2 | BABc d3 c | B2 A2 G4- | G4 z2 B2- | %344
w: |||||||
w: San- * * * * * *||* * ctus, Do-|* mi- nus De- us Sa-||* ba- oth,|* De-|
w: |||||||
 B2 F2 G2 G2 | C2 c3 BAG | A2 G2 F4- | F4 z4 | B4 B2 B2 | A2 G2 F2 DE | FGAB c2 B2 | A6 G2- | %352
w: ||||||||
w: * us Sa- ba-|oth. Ple- * * *|* ni sunt||cae- li et|ter- * ra glo- *|* * * * * ri-|a, glo-|
w: ||||||||
 GG F2 E4 | F2 F2 F4 | G4 G2 G2 | A8 | G2 B4 c2 | A2 B4 A2 | B2 F2 B3 A | GG c3 BAG | ^F4 G4- | %361
w: |||||||||
w: * ri- a tu-|a. Ho- san-|na in ex-|cel-|sis, in ex-|cel- * *|sis, ho- san- na|in ex- cel- * * *||
w: |||||||||
 G2 ^FE F4 | G8 || G6 G2 | F2 DE FGAB | cG c3 BGA | BG B3 ABG | A2 cB AGFE | F2 G2 E4 | A4 D4 | %370
w: |||||||||
w: |sis.|A- gnus|De- * * * * * *|||||* i,|
w: |||||||||
 d2 B2 c2 B2 | A2 A2 B2 AG | B2 A4 G2- | (G2 ^F2) G4 | z4 G4 | G8 | G4 G2 c2- | c2 BA B4 | %378
w: ||||||||
w: A- gnus De- *|i qui tol- lis pec-|ca- ta mun-|* * di:|qui|tol-|lis pec- ca-|* ta * mun-|
w: ||||||||
 A2 G3 ABG | AB c3 dBc | d2 d3 cAB | c4 B2 d2- | dcAB cd c2 | B4 z2 c2- | cBGA B4 | A2 B2 A4- | %386
w: ||||||||
w: di: mi- se- re- re|no- * * * * *|bis, mi- se- re- re|no- bis, mi-|* se- re- re no- * *|bis, mi-|* se- re- re no-|* * bis,|
w: ||||||||
 A4 FD d2- | dd c4 B2 | A4 B4- | B4 z4 | z8 | z4 d2 c2- | c2 B2 A2 G2 | ^F2 B2 A2 B2 | A8 | A8 | %396
w: ||||||||||
w: * mi- se- re-|* re no- *|* bis.|||qui tol-||lis pec- ca- ta|mun-|di:|
w: ||||||||||
 z4 D3 E | FGAB c2 B2 | A2 d3 cBA | G4 z4 | z4 z2 D2- | DE FG A2 G2- | G2 ^FE F4 | G8 |] %404
w: ||||||||
w: do- na|no- * * * * *|bis pa- * * *|cem,|do-|* * na * no- bis|* pa- * *|cem.|
w: ||||||||
V:2
 z8 | D6 D2 | C2 A,B, CDEF | GD G3 FDE | FD F2- FEFD | E6 E2 | D2 E3 D B,C | D2 D4 D2 | %8
w: ||||||||
w: |Ky- ri-|e e- * * * * *|||* lei-|son, e- * lei- *|son. Ky- ri-|
 C2 A,B, CDEF | G4 z4 | C6 C2 | B,2 G,A, B,CDE | F6 F2 | F4 _E4 | D8 | D8 || z2 D3 C DE | %17
w: |||||||||
w: e e * lei- * * *|son.|Ky- ri-|e, e- * * * * *|* lei-|son, e-|lei-|son.|Chri- ste e- *|
 F3 E FDEF | G2 G,2 B,3 C | DCDB, CD C2 | B,2 D3 C DE | F6 F2 | E2 D2 E4 | D3 C DE F2- | %24
w: |||||||
w: ||* * * * * * lei-|son. Chri- ste e- *||* lei- son.|Chri- ste e- * *|
 FEFD _E2 D2- | D2 C2 D4 | _E8 | D8 || z2 D3 E FD | EF G4 FE | D4 z4 | z2 D2- DE FD | EF G4 ^F2 | %33
w: |||||||||
w: ||lei-|son.|Ky- ri- e *|* * e- lei- *|son.|Ky- * ri- e *||
 GFED C2 D2 | C4 B,A,B,C | D4 z4 | z2 D2- DE FD | EF G4 F2 | E4 D2 B,2 | A,2 D2 G,2 _E2 | D8 | %41
w: ||||||||
w: |e- lei- * * *|son.|Ky- * ri- e *|* * * e-|lei- son, e-||lei-|
 D8 || z2 z2 D2- | DCDE F2 F2- | FEFD E4- | E2 E2 D4 | D2 E2- EFED | C2 C2 D2 G2- | G2 F2 _E2 E2 | %49
w: ||||||||
w: son.|Et|* in ter- ra pax ho-|* * * * mi-|* ni- bus,|ho- mi- * * * *|* ni- bus bo-|* næ vo- lun-|
 D4 D4 | z2 C2 D2 D2 | D2 D2 D2 D2- | D2 D2 D2 D2 | D2 D2 D2 D2 | D4 _E4 | D4 DEFD | EF G3 G ^F2 | %57
w: ||||||||
w: ta- tis.|Be- ne- di-|ci- mus te. Ad-|* o- ra- mus|te. Glo- ri- fi-|ca- mus|te. Gra- * * *||
 G3 G D4 | B,A,B,C DE F2 | F8 | C2 D2 C3 C | B,3 B, A,4 | z8 | z2 F2 E2 F2- | FF E2 D4- | %65
w: ||||||||
w: * ti- as|ti- * * * * * *|bi|pro- pter ma- gnam|glo- ri- am||ma- gnam glo-|* ri- am tu-|
 D4 D2 D2- | DD D2 F2 F2 | E6 E2 | D4 D4 | z2 D2 ^C2 D2- | DD C2 C2 B,2 | A,4 z4 | z2 D2 ^C2 D2- | %73
w: ||||||||
w: * am. Do-|* mi- ne De- us,|Rex cae-|le- stis,|De- us Pa-|* ter o- mni- po-|tens,|o- mni- po-|
 D2 C2 D4 | D3 D ^C2 D2- | D2 ^C2 D2 D2 | D3 E C4 | G3 F DE F2- | F2 F2 F2 D2 | _E2 C2 D4 | %80
w: |||||||
w: * * tens|Do- mi- ne Fi-|* li u- ni-|ge- ni- te,|Je- su Chri- * *|* ste, Je- su|Chri- * *|
 D2 G,A, B,CDE | F6 F2 | F2 GF ED E2 | D4 ^C2 D2- | D2 ^C2 DEFD | EFGE F2 D2- | D2 C2 D2 F2- | %87
w: |||||||
w: ste Do- * * * * *|* mi-|ne De- * * * *|* us, A-|* gnus De- * * *|* * * * i Fi-|* li- us Pa-|
 F2 F2 E2 D2- | D2 ^C=B, C4 | D4 z4 || D4 D4 | F2 F2 _E2 C2 | D4 D2 D2- | DCDE FD F2- | %94
w: |||||||
w: ||tris.|Qui tol-|lis pec- ca- ta|mun- di, mi-|* se- re- re no- * *|
 FEFD F2 F2- | FE D2 ^C2 C2 | D4 E2 F2 | D2 D4 ^C2 | D8 | _E4 D4 | D8 | z8 | z8 | D2 F3 ECD | %104
w: ||||||||||
w: |* * * bis. Qui|tol- lis pec-|ca- ta mun-|di,|su- sci-|pe|||Qui se- * * *|
 E4 D4 | D2 F2- FECD | E2 DC D4- | D4 D4 | B,2 C2 D4 | B,2 C4 D2 | _E2 DC E2 D2- | D2 C2 D4 | %112
w: ||||||||
w: * des,|qui se- * * * *|* * * des,|* qui|se- * *|* des ad|dex- te- ram Pa- *|* * tris,|
 z2 E2 ^F2 G2- | G2 F2 E2 F2- | F2 E2 D4 | ^C2 D4 C2 | D8 | B,4 DEFD | EF G4 FE | D4 z4 | %120
w: ||||||||
w: mi- se- re-|* re no- *|* bis, mi-|se- re- re|no-|bis. Quo- * * *|* * * ni- *|am|
 z2 A,2 B,2 C2 | D4 D4- | D4 z2 D2 | C2 B,2 _E3 E | D6 F2 | G4 G2 D2 | F3 F _E4 | B,2 C2 D4 | %128
w: ||||||||
w: tu so- lus|San- ctus|* Tu|so- lus Do- mi-|nus. Tu|so- lus Al-|tis- si- mus,|Je- su Chri-|
 D2 D2 D4- | D2 D2 C2 A,B, | CDEF G2 G,A, | B,CDE F4- | F2 F2 D4- | D2 D2 E2 E2 | EDEF G4 | %135
w: |||||||
w: ste. Cum San-|* cto Spi- * *|||* ri- tu,|* cum- San- cto|Spi- * ri- * tu|
 D2 D3 CDE | F3 E FD E2 | D4 D2 D2 | B,3 C D2 F2- | FEFD E2 D2 | ^C2 D4 C2 | D2 (D2 _E4) | %142
w: |||||||
w: in glo- * * *|* * * * ri-|a De- i|Pa- * tris, De-|* * * * * i|Pa- * *|tris, De- *|
 D2 D2- DCDE | F2 D2 _E2 E2 | D8 | D8 || D6 ^C2 | D2 D2 D2 D2 | C2 A,B, CDEF | G4 D2 E2- | %150
w: ||||Pa- *|trem o- mni- po-|ten- * * * * * *||
w: i Pa- * * * *|* tris. A- men,|a-|men.|||||
 EDED C4 | z2 D2 E2 E2 | ^FGAF G2 G2 | D4 D2 D2 | E2 E2 D4 | D4 z4 | z4 z2 D2- | D2 C2 B,2 A,G, | %158
w: * * * * tem,|fac- to- rem|cae- * * * li, et|ter- rae, cae-|li et ter-|rae|et|* in- vi- si- *|
w: ||||||||
 B,2 B,2 A,2 F2- | FECD _E4- | E2 _E2 D2 D2 | F4 F4 | F2 D3 D D2 | F4 F4 | D4 D4 | B,2 C2 D4 | %166
w: bi- li- um. Et|* in u- num Do-|* mi- num Je-|sum Chri-|stum, Fi- li- um|De- i|u- ni-|ge- * ni-|
w: ||||||||
 D4 z4 | D3 C DE F2 | E3 D EF G2- | GF E2 DCDE | F3 E DC D2 | G,2 A,2 G,2 A,2 | =B,2 C3 C B,2 | %173
w: tum.|Et ex Pa- tre na-||||* * tum an-|te o- mni- a|
w: |||||||
 A,6 A,2 | D2 D3 C A,2 | G,A,B,C DCDE | F2 D2 C2 D2- | D2 C2 D4 | D4 D4 | C2 D4 C2 | D4 D3 C | %181
w: sae- cu-|la, sae- * *|* * * * cu- * * *|la. De- um de|* De- o,|lu- men|de lu- mi-|ne, De- um|
w: ||||||||
 DE F3 E D2- | D2 ^C2 D4- | D2 D2 B,2 B,2 | _E4 D2 F2- | F2 _E2 D3 B, | C8 | D2 F4 C2 | %188
w: ve- * * * *|* * rum,|* de De- o|ve- ro. Ge-|* ni- tum, non|fa-|ctum, con- sub-|
w: |||||||
 D2 D2 G,2 G,2 | C4 B,2 C2 | D2 _E2 D4 | z4 z2 G2 | ^F2 G3 G =F2 | F2 E2 D4- | D2 D2 D4 | %195
w: stan- ti- a- lem|Pa- * *|* * tri:|per|quem o- mni- a|fa- cta, fa-|* cta sunt|
w: |||||||
 z4 z2 C2 | D2 G,2 A,2 B,2- | B,2 A,2 G,4 | z4 z2 F2 | G2 C2 D2 _E2- | E2 D2 C4 | D4 z4 | z8 | %203
w: qui|pro- pter nos ho-|* mi- nes|et|pro- pter no- stram|* sa- lu-|tem||
w: ||||||||
 z2 F2 F3 _E | DC D2 _E4- | E2 _E2 F4 | F2 F2 G4 | D2 D2 _E2 E2 | D4 D4 | D8 || D2 _E4 D2 | %211
w: de- scen- *|* * * dit,|* de- scen-|dit de cae-|lis, de- scen- dit|de cae-|lis.|Et in- car-|
w: ||||||||
 C2 C2 B,4 | z2 D2 EE F2- | F2 _E4 D2 | C4 D4 | z8 | z4 D2 _E2- | E_E D4 C2 | D4 z4 | z4 DD=B,B, | %220
w: na- tus est,|et in- car- na-||tus est||de Spi-|* ri- tu San-|cto|ex Ma- ri- a|
w: |||||||||
 ^C2 D4 C2 | D4 z2 D2- | D2 C4 B,2 | _E2 E2 D4- | D2 C4 B,2 | A,4 G,4- | G,8 || z4 z2 D2- | %228
w: Vir- * gi-|ne: et|* ho- mo|fac- tus est,|* fa- *|ctus est.||Cru-|
w: ||||||||
 DCDE F2 F2 | F4 z4 | z2 D2 _E4 | D4 D2 G2- | GF _E2 D3 C | B,CDE F2 F2- | FEFD EF E2- | %235
w: * ci- fi- xus et- i-|am|pro no-|bis: sub Pon-|* ti- o Pi- *|la- * * * to pas-|* sus, et se- pul- * *|
w: |||||||
 E2 C2 DCDE | E8 | z8 | z2 D2 D2 D2 | G,A,B,C DCDE | F2 F3 F E2 | D8 | C4 z2 E2- | EE D2 ^C2 D2- | %244
w: * * tus * * *|est.||Et re- sur-|re- * * * * * * *|xit ter- ti- a|di-|e, ter-|* ti- a di- *|
w: |||||||||
 D2 C2 D4- | D4 z4 | z2 D4 C2 | D2 D2 (B,2 C2) | D4 z4 | F2 F2 F4 | F4 D2 G2- | G2 F4 E2 | %252
w: * * e||se- cun-|dum Scri- ptu- *|ras.|Et a- scen-|dit in cae-||
w: ||||||||
 F4 z2 F2- | FF D2 F2 GG | F6 F2 | E2 F3 F E2 | D8 | D2 D2 D2 C2 | D2 F2 _E2 E2 | D2 D2 _E2 E2 | %260
w: lum: se-|* det ad dex- te- ram|Pa- tris,|ad dex- te- ram|Pa-|tris. Et i- te-|rum ven- tu- rus|est, ven- tu- rus|
w: ||||||||
 D6 D2 | B,4 C2 D2 | G,2 A,2 B,2 F2- | F2 F2 F2 F2 | F4 D4- | D2 D2 _E4 | _E4 D2 D2- | %267
w: est. cum|glo- * *|* ri- a, ju-|* di- ca- re|vi- vos|* et mor-|tu- os: cu-|
w: |||||||
 D2 D2 C2 F2 | F8 | z2 C2 D2 B,2 | A,4 G,4 | D4 D2 D2 | _E2 D2 C2 B,2 | A,8 || D4 D2 D2- | %275
w: * jus re- *|gni|non e- rit|fi- nis,|non e- rit|fi- * * *|nis.|Et in Spi-|
w: ||||||||
 DD F2 F2 F2 | D2 _E2 D2 D2- | DEFD EF G2- | G2 ^F2 G4 | z2 D2 D2 G2- | GF E2 D4 | ^C2 D3 D C2 | %282
w: * ri- tum San- ctum,|Do- mi- num, et|* vi- vi- fi- can- * *|* * tem:|qui ex Pa-||tre Fi- li- o-|
w: |||||||
 B,2 B,2 A,4 | B,4 C2 D2 | C4 z4 | z2 D2 E2 F2- | FF E2 D4- | D2 C2 D4 | D2 D2 _E2 E2 | DE F4 E2 | %290
w: que pro- ce-||dit.|Qui cum Pa-|* tre et Fi-|* li- o|si- mul- ad- o-|ra- * * *|
w: ||||||||
 F2 C2 C2 D2- | DD C2 CB,A,G, | A,B,CD E2 D2- | D2 ^C2 D2 B,2 | A,2 D4 D2 | D3 C (B,2 G,2) | %296
w: tur, et con- glo-|* ri- fi- ca- * * *|||tur: qui lo-|cu- tus est *|
w: ||||||
 B,2 A,G, A,2 D2 | _E8 | D2 D2 _E2 F2 | _E4 D2 F2 | _E2 C2 D2 D2 | _E2 F2 E3 E | D2 F2 _E2 C2 | %303
w: per Pro- * phe- *||tas. Et u- nam|san- ctam, ca-|tho- li- cam, et|a- po- sto- li-|cam Ec- cle- si-|
w: |||||||
 D2 F2 F4- | F2 G2 G2 D2 | _E2 E2 E4 | D8 | z4 z2 D2- | DCDE F2 F2 | F2 F2 E4- | E4 D4 | %311
w: am. Con- fi-|* te- or u-|num ba- ptis-|ma|in|* re- mis- si- o- nem|pec- ca- to-|* rum.|
w: ||||||||
 z2 D2 D2 F2- | F2 E2 DCDE | F8 | z8 | z2 F2- FECD | E4 D4 | z2 D4 C2 | D8 | D8 | z8 | z6 D2 | %322
w: Et ex- spe-||cto||re- * sur- re- xi-|o- nem|mor- tu-|o-|rum.||Et|
w: |||||||||||
 _E2 DC E2 D2- | D2 C4 B,2 | A,2 D4 B,2 | A,4 z4 | z2 F3 EDC | D2 E3 DCB, | C2 D3 CB,A, | %329
w: vi- tam ven- tu- ri|* sae- cu-|li, sae- cu-|li.|A- * * *|men, a- * * *|men, a- * * *|
w: |||||||
 B,2 _E4 D2- | D_EDC D2 E2 | D8 | D8 || z4 z2 D2- | DCDE FD F2- | FEFD E4- | E4 D4 | D3 C DEFD | %338
w: men, a- *|* * * * * men,|a-|men.||||||
w: ||||San-|||* ctus,|San- * * * * *|
 E2 G3 G ^F2 | GD F4 E2 | F4 _E2 D2 | B,2 G,2 A,4 | z2 D2 =B,2 C2 | D3 D E2 D2- | D2 C2 DCDE | %345
w: |||||||
w: ctus, Do- mi- nus|De- us Sa- ba-|oth, De- us|Sa- ba- oth,|Do- mi- nus|De- us Sa- *|* * ba- * * *|
 F4 z2 F2- | FF _E4 D2 | C4 D2 F2 | F2 F4 F2 | _E4 D4 | z4 G,A,B,C | DE F4 ED | ^C2 D4 C2 | %353
w: ||||||||
w: oth. Ple-|* ni, ple- *|ni * *|||glo- * * *|* * * ri- a|tu- * *|
 D2 A,2 D3 C | B,2 _E2 (E3 D) | C2 F2 F3 _E | D2 D2 (G4 | F8) | F8 | z2 C2 _E2 E2 | D6 C2 | D8 | %362
w: |||||||||
w: a. Ho- san- na|in ex- cel- *|sis, ho- san- na-|in ex- cel-||sis,|ho- san- na|in ex-|cel-|
 D8 || z8 | D6 D2 | C2 A,B, CDEF | GD G3 FDE | F4 z2 D2- | D2 D2 C2 A,B, | CDEF GD G2- | %370
w: ||||||||
w: sis.||A- gnus|De- * * * * * *||i, A-|* gnus De- * *||
 GF D2 E2 DC | D8- | D4 z4 | z8 | z2 D2 _E2 DC | _E2 D4 C2- | C2 B,2 _E4 | D4 z4 | z4 D3 E | %379
w: |||||||||
w: |i-|||qui tol- lis pec-|ca- ta mun-||di:|mi- se-|
 FDEF G2 G2- | GFDE F3 E/D/ | E4 D4 | z4 z2 G2- | GFDE FG F2- | F2 E2 D4 | D3 E ^C2 D2- | %386
w: |||||||
w: re- * * * re, mi-|* se- re- re no- * *|* bis,|mi-|* se- re- re no- * *|* * bis,|mi- se- re- re|
 D2 ^C2 D4 | _E3 E D2 D2 | D4 D4 | z2 D3 CDE | F3 E FD _E2 | D4 z2 C2 | D4 D4 | D4 D3 E | %394
w: ||||||||
w: * no- bis|mi- se- re- re|no- bis.|A- * gnus *|De- * * * *|i qui|tol- lis|pec- ca- ta|
 ^C2 D4 C2 | D4 z4 | z4 z2 D2- | DEFD EF G2- | G2 ^F2 G2 D2- | DCDE F3 E/D/ | ^C4 D2 F2- | %401
w: |||||||
w: mun- * *|di:|do-|* na no- bis pa- * *|* * cem, do-|* na no- bis pa- * *|* cem, do-|
 F2 D2 _E2 E2 | D8 | D8 |] %404
w: |||
w: * na no- bis|pa-|cem.|
V:3
 z8 | z8 | z8 | G6 G2 | F2 DE FGAB | cG c3 BGA | =B2 c2 G3 F | DEFG A4 | A2 c4 c2 | B2 dc BAGF | %10
w: |||Ky- ri-|e e- * * * * *||lei- son, e *|* * * * lei-|son. Ky- ri-|e e- * * * * *|
w: ||||||||||
w: ||||||||||
 EF G4 ^F2 | GABc d2 B2 | c3 B AGFE | D2 d4 c2- | c2 B2 A4 | =B8 || G3 F GA B2- | BABG AB c2- | %18
w: |* * * * son, e-|||* * lei-|son.|Chri- ste e- * *|* * * * * * lei-|
w: ||||||||
w: ||||||||
 c2 BA G4 | z6 G2- | GF GA B2 A2- | AGAB c3 B | cA =B2 c2 GF | GA B4 cB | AG F2 GA B2- | %25
w: * * * son.|Chri-|* ste e- * * *||* * lei- son, e- *||lei- * son, e- * *|
w: |||||||
w: |||||||
 BA G2 A2 B2 | c2 d2 c2 B2 | A8 || z8 | z4 D3 E | FGAB c2 B2 | A6 F2 | GABG A4 | G2 G2 A2 B2 | %34
w: |* * lei- *|son.||Ky- ri-|e * * * * *|e- *|* * * * lei-|son, e- lei- *|
w: |||||||||
w: |||||||||
 A4 z2 D2- | DE FG AB c2- | c2 B2 A2 F2 | G3 d ^c2 d2- | d2 ^c2 d2 DE | FGAB c3 B | A8 | G8 || %42
w: son. Ky-|* ri- e * * * *||* * * e-|* lei- son, e- *||lei-|son.|
w: ||||||||
w: ||||||||
 z2 z2 G2- | G2 G2 F2 DE | FGAB cG c2- | c2 c2 B3 A | B2 c2- cB G2 | A2 A2 B2 d2- | d2 d2 B2 c2 | %49
w: |||||||
w: |||||||
w: Et|* in ter- * *|* * * * * ra pax|* ho- mi- *||* ni- bus bo-|* næ vo- lun-|
 A4 B2 B2 | A2 G2 ^F2 G2 | ^F2 B2 A2 G2 | ^F2 B2 A2 c2- | c2 B2 A2 c2- | cc =B2 c2 _B2 | A8 | %56
w: |||||||
w: |||||||
w: ta- tis. Lau-|da- mus te. Be-|ne- di- ci- mus|te. A- do- ra-|* mus te. Glo-|* ri- fi- ca- mus|te.|
 z2 d3 d A2 | B6 A2 | G2 GA BcdB | c4 d2 B2 | A2 B4 A2 | G3 G F4 | z2 c2 =B2 c2- | c2 =B2 c2 A2 | %64
w: ||||||||
w: ||||||||
w: Gra- ti- as|a- gi-|mus ti- * * * * *|* bi pro-|pter ma- gnam|glo- ri- am|pro- pter ma-|* gnam glo- ri-|
 G4 ^F2 G2- | G2 ^F2 GFGA | B2 AG A2 B2 | c2 c3 c c2 | B4 G2 D2- | D2 D2 F4 | E2 A2 ^F2 G2- | %71
w: |||||||
w: |||||||
w: am tu- *|||am Do- mi- ne|De- us, Rex|* cae- le-|stis, De- us Pa-|
 GG F2 E2 E2 | D4 z4 | G4 A2 B2 | A3 A G2 A2 | G6 FE | F2 A3 G EF | G2 B3 A FG | AGAB c2 B2 | %79
w: ||||||||
w: ||||||||
w: * ter o- mni- po-|tens,|Do- mi- ne|Fi- li u- ni-|ge- ni- *|te Je- su Chri- *|ste, Je- su Chri- *||
 cBAG A4 | BG B3 ABG | A2 cB AGFE | D2 d4 c2- | c2 B2 A4- | A4 B4 | c4 (d2 A2) | B2 AG A2 d2- | %87
w: ||||||||
w: ||||||||
w: * * * * ste,|Je- su Chri- * * *||ste. Do- mi-|* ne De-|* us,|A- gnus *|De- * * i Fi-|
 d2 c4 A2 | A8 | A4 z4 || A4 B4 | c2 d2 cB AG | A4 B2 G2- | G2 G2 F2 DE | FGAB c2 F2 | B4 A2 E2 | %96
w: |||||||||
w: |||||||||
w: * li- us|Pa-|tris|Qui tol-|lis pec- ca- * ta *|mun- di, mi-|* se- re- * *|* * * * * re|no- bis. Qui|
 F4 G2 A2 | GF ED E4 | F2 DE FGAB | c3 BAG A2 | B4 z2 D2- | DCDE F2 F2 | E3 D EFGA | B2 AG A4 | %104
w: ||||||||
w: ||||||||
w: tol- lis pec|ca- * ta * mun-|di, su- * * * * *|* * * * sci-|pe de-|* pre- ca- ti- o- nem|no- * * * * *|* * * stram.|
 z4 G2 B2- | BA/G/ FG AB c2- | c2 B2 A2 A2 | B2 AG B2 A2- | A2 G4 ^F2 | G4 z2 A2 | B2 c2 G2 B2- | %111
w: |||||||
w: |||||||
w: Qui se-||* * des ad|dex- te- ram Pa- *||tris, mi-|se- re- re no-|
 BA G4 ^F2 | G4 z2 d2 | ^c2 d4 =c2 | d2 G2 A2 BA | A6 A2 | F2 B2 A4 | G4 z4 | z4 D3 E | %119
w: ||||||||
w: ||||||||
w: |bis, mi-|se- re- re|no- bis, mi- se- *|re- re|no- * *|bis.|Quo- *|
 FGAB c2 B2 | d4 z2 G2 | B2 A4 G2- | G2 F2 _E2 D2 | GA B4 A2 | B2 B2 d4 | d2 d2 _e2 B2 | c2 c4 c2 | %127
w: ||||||||
w: ||||||||
w: * * * * * ni-|am Tu|so- lus San-|* * ctus. Tu|so- lus Do- mi-|nus. Tu so-|lus Al- tis- si-|mus, Je- su|
 GFGA B4 | A4 G2 G2 | B2 B2 (A4 | B2) A2 G4 | z6 c2 | c2 c2 B2 dc | BAGF EF G2 | A2 A2 D2 D2 | %135
w: ||||||||
w: ||||||||
w: Chri- * * * *|* ste. Cum|San- cto Spi-|* ri- t,u|cum|San- cto Spi- * *||* ri- tu in|
 GFGA B3 c | d4 z2 G2 | G3 F GA B2- | BABG A4- | A2 F2 G2 G2- | G2 F2 E4 | D2 G2- GFGA | %142
w: |||||||
w: |||||||
w: glo- * * * * ri-|a, in|glo- * * * *||* ri- a De-|* i Pa-|tris. A- * * * *|
 B3 A/G/ FEFG | A2 F2 G2 c2- | c2 B2 A4 | =B8 || B3 A GF G2 | A8 | z2 c2 c2 c2 | B2 dc BAGF | %150
w: ||||||||
w: ||||Pa- * * * *|trem|o- mni- po-|ten- * * * * * *|
w: |* * men, a-||men.|||||
 EF G4 ^F2 | G4 C4 | z4 z2 G2 | A2 A2 =BcdB | c2 c2 (B2 A2) | G2 G4 A2 | B2 AG B2 A2 | G4 z4 | %158
w: ||||||||
w: |* tem,|fa-|cto- rem cae- * * *|li et ter- *|rae vi- si-|bi- li- um o mni-|um.|
w: ||||||||
 z2 F3 EFG | A2 A2 G2 G2- | GFGA BcdB | c2 d2 c4 | d2 B3 B B2 | d4 c4 | B2 B2 A2 B2- | BA G2 A4 | %166
w: ||||||||
w: Et in u- num|Do- mi- num Je-||* sum Chri-|stum, Fi- li- um|De- i|u- ni- ge- *|* * * ni-|
w: ||||||||
 B2 G3 FGA | B3 A/G/ FGAB | c8 | z2 G4 G2 | F2 DE FGAB | c6 G2 | G4 z2 d2 | ^c2 d3 d =c2 | %174
w: ||||||||
w: tum. Et ex Pa- tre|na- * * * * * *|tum|an- te|o * * * * * *|* mni-|a, an-|te o- mni- a|
w: ||||||||
 B2 B2 A4 | z4 z2 G2 | F2 B2 A4 | B2 AG A4 | B2 G2 ^F2 B2 | (A4 B2) (AG) | A4 z2 G2- | G2 F2 B4 | %182
w: ||||||||
w: sae- cu- la.|De-|um de De-||o, lu- men de|lu- * mi- *|ne, De-|* um ve-|
w: ||||||||
 A4 z4 | z8 | c3 c F2 B2 | A4 B2 G2 | FGAF G4 | A2 d2 c2 A2- | AGAB c2 G2 | A4 D2 E2 | %190
w: ||||||||
w: rum,||Ge- ni- tum, non|fac- tum, non|fa- * * * *|* * ctum, con-|* sub- stan- ti- a- lem|Pa- * *|
w: ||||||||
 D2 G2 ^F2 G2- | GG ^F2 G2 G2 | A2 D2 D4 | z2 A3 A G2 | G2 ^F2 G2 B2 | c2 d2 c4 | (=B2 c2 d4 | %197
w: |||||||
w: tri: per quem o-|* mni- a fa- cta,|fa- cta sunt,|o- mni- a|fa- cta sunt. Qui|pro- pter nos|ho- * *|
w: |||||||
 G2) c2 c4 | z2 B2 c2 d2 | c4 B2 B2 | c2 F2 z2 f2 | f3 e dc d2- | d2 G2 _e4- | e2 d2 c4 | %204
w: |||||||
w: * mi- nes|et pro- pter|no- stram sa-|lu- tem de-|scen- * * * dit|* de cae-|* * lis,|
w: |||||||
 z4 z2 B2 | c4 c2 c2 | d3 c B4 | G2 A2 B2 c2- | c2 B2 A4 | =B8 || z8 | z4 d2 _e2- | e2 d2 c4 | %213
w: |||||||||
w: de-|scen- dit de|cae- * *|lis, de- scen- dit|de cae- lis.|||Et in-|* car- na-|
w: |||||||||
 B4 AA B2- | B2 A2 B4 | z4 B2 c2- | cc B2 ABcB | AG/A/ BAGF G2 | A2 AA ^F2 G2 | A3 A B2 GG | %220
w: |||||||
w: tus, in- car- na-|* tus est|de Spi|* ri- tu San- * * *||cto ex Ma- ri- a|Vir- gi- ne, ex Ma-|
w: |||||||
 E2 F2 E3 E | D4 B4 | A2 G2 ^F2 G2- | GFGA B2 F2 | G4 A2 d2 | _e2 d4 c2- | c2 =BA B4 || z2 G3 FGA | %228
w: ||||||||
w: ri- a Vir- gi-|ne: et|ho- mo fa- *||ctus est, et|ho- mo fa-|* ctus * est.|Cru- ci- fi- xus|
w: ||||||||
 B2 B2 c2 d2 | c2 f4 e2 | d4 c4 | A2 d3 c (BA) | G2 G4 ^F2 | G4 z4 | z4 z2 c2- | cBcA B2 B2 | %236
w: ||||||||
w: et- i- am pro|no- * *|* bis:|sub Pon- * ti- *|o Pi- la-|to|pas-|* sus, et se- pul- tus|
w: ||||||||
 c2 A3 GAF | GAGA B2 c2- | c2 B2 A4 | B2 G2 G2 G2 | DEFG AB c2- | c2 B3 AFG | ABcA =B2 c2 | %243
w: |||||||
w: est, pas- sus, et se-|pul- * * * * *|* * tus|est. Et re- sur-|re- * * * * * *||* * * * * xit|
w: |||||||
 z2 G3 G F2 | E2 F3 D B2 | A2 A2 B2 AG | B2 A4 G2- | G2 ^F2 G4 | A2 B4 A2 | B2 B2 B2 d2- | %250
w: |||||||
w: ter- ti- a|di- * * *|e se- cun- dum Scri-|ptu- * *|||ras. Et a- scen-|
w: |||||||
 dd d2 d4 | c4 z2 c2- | cc A2 c2 dd | c2 B2 A2 G2 | A2 c4 B2- | BB A2 G2 A2 | ^F2 G4 F2 | %257
w: |||||||
w: * dit in cae-|lum: se-|* det ad dex- te- ram|Pa- * * *|tris, ad dex-|* te- ram Pa- *||
w: |||||||
 G2 B2 A2 G2 | ^F2 d2 c2 B2 | A2 B2 A2 G2 | ^F2 G2 FGAF | GABG A2 B2 | c3 c F2 B2- | B2 B2 d2 d2 | %264
w: |||||||
w: tris. Et i- te-|rum ven- tu- rus|est, ven- tu- rus|est cum glo- * * *||* ri- a, ju-|* di- ca- re|
w: |||||||
 c4 B2 B2 | A2 B2 c4- | c2 B2 A4 | z4 z2 c2 | d2 B2 c4 | B2 AG A2 G2- | G2 ^F2 G2 d2- | d2 c4 =B2 | %272
w: ||||||||
w: vi- vos et|mor- * *|* tu- os:|non|e- rit fi-||* * nis, non-|* e- rit|
w: ||||||||
 c2 B2 A2 G2 | ^F8 || A4 A2 B2- | BB c2 d2 c2 | B2 c2 A4 | A3 B c2 B2 | A4 B4 | z8 | z2 c3 c B2 | %281
w: |||||||||
w: fi- * * *|nis.|Et in Spi-|* ri- tum San- ctum,|Do- mi- num,|et vi- vi- fi-|can- tem:||Fi- li- o-|
w: |||||||||
 A2 A2 B2 AG | F2 G4 ^F2 | G4 z4 | z4 z2 G2 | A2 B3 B A2 | =B2 c2 G2 _B2- | B2 AG AF A2- | %288
w: |||||||
w: que pro- ce- * *||dit.|Qui|cum Pa- tre et|Fi- li- o si-|* mul- * ad- o- ra-|
w: |||||||
 AG F2 GFGA | Bcdc B4- | B2 A2 z4 | z4 z2 F2 | F2 G3 G F2 | E4 D2 d2- | d2 A2 B3 A | B2 A2 G2 G2- | %296
w: ||||||||
w: ||* tur,|et|con- glo- ri- fi-|ca- tur: qui|* lo- cu- tus|est per Pro- phe-|
w: ||||||||
 G2 FE ^F2 G2- | GA B4 A2 | B2 B2 c2 d2 | c4 B2 B2 | B2 A2 B2 B2 | c2 d2 c3 c | B2 B2 B2 A2 | %303
w: |||||||
w: ||tas. Et u- nam|san- ctam, ca-|tho- li- cam, et|a- po- sto- li-|cam Ec- cle- si-|
w: |||||||
 B4 z2 d2 | d6 B2 | B6 c2- | cc B2 A4 | B4 z2 G2- | G2 G2 F2 DE | FGAB cG c2- | cBGA BG B2- | %311
w: ||||||||
w: am Con-|fi- te-|or u-|* num ba- ptis-|ma pec-|* ca- to- * *|||
w: ||||||||
 BABc B2 A2 | d2 c2 B2 D2 | D2 F3 GAB | c2 c3 BGA | B3 AFG A2- | AGEF GABc | d3 c B2 AG | %318
w: |||||||
w: |* * rum. Et|ex- spe- * * *|cto re- sur- re- xi-|o- * * * *||* nem mor- tu- *|
w: |||||||
 B4 A2 A2 | B2 AG B2 A2- | A2 G4 ^F2 | G4 z4 | z2 G2 G4- | G2 G2 G3 G | F2 A2 B2 d2 | %325
w: |||||||
w: o- rum. Et|vi- tam ven- tu- ri|* sae- cu-|li,|ven- tu-|* ri sae- cu-|li, ven- tu- ri|
w: |||||||
 (^c2 d4) (cB) | ^c2 d3 =cBA | B2 c2- cBAG | A2 B3 AGF | G2 c3 BAG | A2 B2 F2 c2- | c2 B2 A4 | %332
w: |||||||
w: sae- * cu- *|li. A- * * *|men, a- * * * *|men, a- * * *|men, a- * * *|* * men, a-||
w: |||||||
 =B8 || z4 G4- | G2 G2 F2 DE | FGAB cG c2- | cBGA Bc d2 | DEFG A2 F2 | (G4 A4) | (D2 A2) G4 | z8 | %341
w: |San-|* ctus, San- * *|||||* * ctus,||
w: men.|||||||||
w: |||||||||
 z2 G3 G ^F2 | GD F4 E2 | D2 G3 G ^F2 | G2 A2 B2 B2 | A4 c3 B | A2 B2 c2 B2- | B2 A2 B4 | %348
w: Do- mi- nus|De- us * *|* Do- mi- nus|De- us Sa- ba-|oth. Ple- *||* ni sunt|
w: |||||||
w: |||||||
 d4 d2 d2 | (c2 B2) A4 | DEFD EF G2- | GG F2 (B4 | A8) | A2 A2 B3 A | G2 B2 (c3 B) | A2 c2 d3 c | %356
w: cae- li et|ter- * ra|glo- * * * * * *|* ri- a tu-||a. Ho- san- na|in ex- cel- *|sis, ho- san- na|
w: ||||||||
w: ||||||||
 B2 B2 _e4- | e2 d2 c4 | d4 z2 d2 | _e3 d c3 B | A2 B3 A G2 | A8 | G8 || z8 | z8 | z8 | z8 | z8 | %368
w: in ex- cel-||sis, ho-|san- na in ex-|cel- * * *||sis.||||||
w: ||||||||||||
w: ||||||||||||
 z4 z2 c2- | c2 c2 B2 dc | BAGF EF G2- | G2 ^F2 G4 | z2 A2 B2 AG | B2 A2 G2 c2- | c2 =B2 c4 | %375
w: A-|* gnus De- * *||* * i|qui tol- lis pec-|ca- ta mun- *|* * di,|
w: |||||||
w: |||||||
 z2 d2 _e2 dc | _e2 d2 cBAG | ^F2 G2 D3 E | FDEF G4 | F2 G2 G4 | z4 A3 G | EF G3 FDE | FG A3 FGA | %383
w: qui tol- lis pec-|ca- ta mun- * * *|* di: mi- se-|re- * * * *|re no- bis|mi- se-|re- re no- * * *||
w: ||||||||
w: ||||||||
 G4 z4 | z2 G3 FDE | ^F2 G4 =F2 | E2 F4 G2- | G2 A2 ^F2 G2- | G2 ^F2 G4 | G3 F GA B2- | %390
w: bis,|mi- se- re- re|no- o- bis,|mi- se- re-|* re * no-|* * bis:|A- gnus De- * *|
w: |||||||
w: |||||||
 BABG AB c2- | c2 B2 A2 G2 | ^F2 G2 F2 B2 | A2 G2 ^F2 G2- | G2 F2 E4 | F2 DE FGAB | c2 B2 A4- | %397
w: ||* * i qui|tol- lis pec- ca-|* ta mun-|di: do- * * * * *|* na no-|
w: |||||||
w: |||||||
 A2 F2 GABc | d4 G4 | B2 B2 A2 A2 | G4 F2 DE | FGAB c2 B2 | A8 | =B8 |] %404
w: * bis pa- * * *|* cem,|do- na no- bis|pa- cem, no- *|* * * * * bis|pa-|cem.|
w: |||||||
w: |||||||
V:4
 z8 | z8 | z8 | z8 | D,6 D,2 | C,2 A,,B,, C,D,E,F, | G,G,, C,3 B,,G,,A,, | B,,C, D,2 D,,E,,F,,G,, | %8
w: ||||||||
w: ||||Ky- ri-|e e- * * * * *|||
 A,,2 F,,2 A,,2 A,,2 | G,,2 G,3 F,E,D, | C,D,C,B,, A,,4 | G,,2 G,4 G,2 | F,2 A,G, F,E,D,C, | %13
w: |||||
w: * * * lei-|son, e * * *|* * * * lei-|son. Ky- ri-|e e- * * * * *|
 B,,4 C,4 | D,8 | G,,8 || z8 | z8 | G,,3 F,, G,,A,, B,,2- | B,,A,,B,,G,, A,,B,, C,2 | G,,4 D,3 C, | %21
w: ||||||||
w: |lei-|son.|||Chri- ste e- * *|* * * * * * lei-|son. Chri- ste|
 D,E, F,3 E,F,D, | E,F, G,2 C,4 | G,,2 G,4 F,2- | F,2 D,2 C,2 B,,2 | _E,4 D,4 | C,8 | D,8 || z8 | %29
w: ||||||||
w: e- * * * * *|* * * lei-|son. e- *|||lei-|son.||
 z6 D,2- | D,E, F,D, E,F, G,2- | G,2 F,E, D,2 D,2 | C,2 G,,2 D,4 | z8 | z4 G,,3 A,, | %35
w: ||||||
w: Ky-|* ri- e * * * *||e- lei- son.||Ky- ri-|
 B,,C,D,E, F,3 _E, | D,6 D,2 | C,2 G,,2 A,,2 F,,2 | G,,2 A,,2 B,,A,,B,,C, | D,4 C,4 | D,8 | G,,8 || %42
w: |||||||
w: e * * * * *|e- lei-|son, * * *|||||
 z4 z2 | z4 z2 D,2- | D,2 D,2 C,2 A,,B,, | C,D, E,F, G,G,, G,2- | G,F,E,D, C,3 B,, | %47
w: |||||
w: |Et|* in ter- ra *|pax * ho- * mi- ni- *||
 A,,4 G,,2 G,2- | G,2 D,2 _E,2 C,2 | D,4 G,,2 G,2 | F,2 _E,2 D,2 G,,2 | D,6 D,2 | %52
w: |||||
w: ni- bus bo-|* næ vo- lun-|ta- tis. Lau-|da- mus te. Be-|ne- di-|
 D,2 G,,2 (D,2 E,2) | ^F,2 G,2 D,2 E,2 | ^F,2 G,2 C,4 | D,4 D,4 | C,2 G,,2 D,2 D,2 | %57
w: |||||
w: ci- mus te *|Ad- o- ra- *|* * mus|te. Glo|ri- fi- ca- mus|
 G,,2 G,3 G, D,2 | _E,4 B,,2 B,,2 | F,4 B,,4 | z8 | z6 F,2 | E,2 F,4 E,2 | D,3 D, C,2 F,,2 | %64
w: |||||||
w: te. Gra- ti- as|a- gi- mus|ti- bi||pro-|pter ma- gnam|glo- ri- am, glo-|
 G,,2 C,2 D,4- | D,4 G,,4 | z2 D,3 D, D,2 | C,2 A,,B,, C,D, E,F, | G,2 G,,3 A,,B,,C, | %69
w: |||||
w: ri- am tu-|* am.|Do- mi- ne|De- us, * Rex * cae- *|le- * * * *|
 D,2 B,,2 A,,4- | A,,4 z4 | z6 A,,2 | ^F,,2 G,,3 G,, =F,,2 | E,,2 E,,2 D,,4 | D,4 E,2 F,2 | %75
w: ||||||
w: * * stis,||De-|us Pa- ter o-|mni- po- tens.|Do- mi- ne|
 E,4 D,4 | D,3 C, A,,B,, C,2- | C,B,,G,,A,, B,,2 B,,2 | F,,2 F,4 G,2 | C,2 _E,2 D,4 | %80
w: |||||
w: Fi- li|u- ni- ge- * *|* * * * * ni-|te, Je- su|Chri- * *|
 G,,2 G,4 G,2 | F,2 A,G, F,E,D,C, | B,,A,, G,,2 C,4 | D,2 G,,2 A,,4 | z8 | z6 D,2 | %86
w: ||||||
w: ste. Do- mi-|ne De- * * * * *||* * us||A-|
 B,,2 _E,2 D,2 B,,2 | B,,2 F,,2 C,2 D,2 | A,,8 | D,4 z4 || D,4 G,4 | F,2 B,,2 C,2 _E,2 | D,4 G,,4 | %93
w: |||||||
w: gnus De- i Fi-|li- us Pa- *||tris.|Qui tol-|lis pec- ca- ta|mun- di,|
 z8 | z8 | z4 A,,4 | D,4 C,2 F,,2 | G,,2 B,,2 A,,4 | D,,4 D,4 | C,4 D,4 | G,,8 | z2 D,4 D,2 | %102
w: |||||||||
w: ||Qui|tol- lis pec-|ca- ta mun-|di, su-|* sci-|pe|de- pre-|
 C,2 A,,B,, C,D,E,F, | G,2 D,2 F,3 E,/D,/ | C,4 G,,2 G,,2 | B,,3 A,,/G,,/ F,,G,,A,,B,, | %106
w: ||||
w: ca- ti- * o- * * *|* nem no- * *|* stram. Qui|se- * * * * * *|
 C,2 G,,2 D,4 | G,,2 G,4 ^F,2 | G,2 _E,2 D,2 D,2 | _E,2 D,C, E,2 D,2- | D,2 C,4 B,,2 | _E,4 D,4 | %112
w: ||||||
w: |des qui se-|* * des ad|dex- te- ram Pa- *||* tris,|
 G,,2 C,2 D,2 G,,2 | A,,6 A,,2 | =B,,2 C,4 _B,,2 | A,,8 | B,,3 C, D,4 | G,,4 z4 | z6 D,2- | %119
w: |||||||
w: mi- se- re- re|no- bis,|mi- * se-|re-|re * no-|bis.|Quo-|
 D,E,F,D, E,F, G,2- | G,2 ^F,2 G,2 _E,2 | D,4 G,,4 | z2 D,2 C,2 B,,2 | _E,3 D, C,2 C,2 | %124
w: |||||
w: |* ni- am tu|so- lus|Tu so- lus|Do- * * mi-|
 B,,2 B,,2 B,4 | G,2 G,2 _E,2 G,2 | F,4 C,2 C,2 | _E,4 D,4- | D,4 z4 | z8 | z6 G,2 | %131
w: |||||||
w: nus. Tu so-|lus Al- tis- si-|mus, Je- su|Chri- ste.|||Cum|
 G,2 G,2 F,2 A,G, | F,G,A,F, G,2 G,,2- | G,,2 G,,2 (C,3 B,,) | A,,4 G,,2 G,,2 | %135
w: ||||
w: San- cto Spi- * *|ri- * * * tu, San|* cto Spi- *|ri- tu in|
 G,,3 F,, G,,A,, B,,2- | B,,A,,B,,G,, A,,B,, C,2- | C,2 B,,A,, G,,4 | _E,4 D,4- | D,4 C,2 G,,2 | %140
w: |||||
w: glo- * * * *||* ri- * a,|in glo-|* * ri-|
 A,,8 | z2 G,,2 C,2 C,2 | G,,4 D,4- | D,2 D,2 C,2 C,2 | D,8 | G,,8 || G,3 F,E,D, E,2 | %147
w: ||||||Pa- * * * *|
w: a,|in glo- ri-|a De-|* i Pa- tris.|A-|men.||
 D,3 C, D,E,F,G, | A,2 A,,3 B,, C,2 | G,,2 G,3 F,E,D, | C,3 B,, A,,4 | G,,4 z4 | z2 D,2 E,2 E,2 | %153
w: |trem o- * *|mni- po- * * *|* * ten-|tem,|fa- cto- rem|
w: ||||||
 ^F,G,A,F, G,2 G,,2 | C,D,E,F, G,2 D,2 | G,,4 z4 | z2 G,4 F,2 | _E,2 D,C, E,2 E,2 | %158
w: cae- * * * * li|et * * * * ter-|rae|et in-|vi- si- * bi- li-|
w: |||||
 D,2 (D,3 C,) (D,E,) | F,2 F,2 (C,B,,) (C,D,) | _E,2 E,2 G,4 | F,8 | B,,4 z2 B,,2- | %163
w: um. Et * in *|u- num Do- * mi- *|num Je- sum|Chri-|stum, Fi-|
w: |||||
 B,,B,, B,,2 F,2 F,2 | G,4 D,4 | _E,4 D,4 | G,,4 z2 G,,2- | G,,F,,G,,A,, B,,2 A,,2- | %168
w: * li- um De- i|u- ni-|ge- ni-|tum. Et|* ex Pa- tre na- *|
w: |||||
 A,,G,,A,,B,, C,2 C,2 | G,,4 z4 | z2 D,4 D,2 | C,2 A,,B,, C,D,E,F, | G,2 _E,2 D,2 G,,2 | A,,8 | %174
w: |tum|an- te|o- * * * * * *|* * * mni-|a|
w: ||||||
 B,,3 C, D,4 | z8 | z4 z2 D,2 | B,,2 _E,2 D,4 | G,,4 z4 | z2 D,2 B,,2 _E,2 | D,3 D, G,,4 | z8 | %182
w: sae- cu- la,||De-|um de De-|o|lu- men de|lu- mi- ne,||
w: ||||||||
 z4 D,4 | B,,2 B,,2 _E,3 D, | C,4 B,,4 | z8 | z2 F,4 _E,2 | D,2 B,,2 F,3 E, | D,4 C,3 B,, | %189
w: de|De- o ve- *|* ro,||con- sub-|stan- ti- a- *|lem Pa- *|
w: |||||||
 A,,4 G,,2 C,2 | =B,,2 C,3 C, _B,,2 | A,,2 A,,2 G,,2 E,,2 | D,,4 z2 D,2- | D,D, C,2 B,,2 G,,2 | %194
w: * tri: per|quem- o- mni- a|fa- cta, fa- cta|sunt, o-|* mni- a fa- cta|
w: |||||
 D,4 z2 G,2 | A,2 D,2 E,2 F,2- | F,2 E,2 D,4 | C,6 C,2 | D,2 G,,2 A,,2 B,,2- | B,,2 A,,2 G,,4 | %200
w: sunt. Qui|pro- pter nos ho-|* mi- nes|* et|pro- pter no- stram|* sa- lu-|
w: ||||||
 F,,8 | B,,2 B,2 B,3 A, | G,F, _E,3 D, C,2 | B,,2 B,,2 F,4 | B,,2 B,,2 _E,4 | C,2 C,2 F,4 | %206
w: |tem de- scen- *||dit de cae-|lis, de- scen-|dit de cae-|
w: ||||||
 D,2 D,2 G,4- | G,2 F,2 _E,2 C,2 | D,8 | G,,8 || G,4 F,2 B,,2 | F,,4 G,,4 | A,,A,, B,,4 A,,2 | %213
w: lis, de- scen-|* * dit de|cae-|lis.|Et in- car-|na- tus|est, in- car- na-|
w: |||||||
 G,,4 F,,4- | F,,4 B,,4 | D,2 _E,3 E, C,2 | D,2 G,,2 D,2 C,2 | F,2 B,,2 _E,4 | D,4 D,D,=B,,B,, | %219
w: * tus|* est|de Spi- ri- tu|San- cto, de Spi-|ri- tu San-|cto ex Ma- ri- a|
w: ||||||
 C,2 D,2 G,,4 | A,,A,,F,,F,, G,,2 A,,2 | D,,4 G,4 | F,2 _E,2 D,2 G,,2 | C,4 B,,4 | _E,4 D,2 B,,2 | %225
w: Vir- gi- ne,|ex Ma- ri- a Vir- gi-|ne: et|ho- mo fa- *||ctus est, et|
w: ||||||
 C,2 D,C, =B,,2 C,2 | G,,8 || z4 z2 G,2- | G,2 G,2 F,2 D,E, | F,G,A,B, C2 E,2 | ^F,2 G,2 C,4 | %231
w: ho- mo * fa- ctus|est.|et-|* i- am pro *|no- * * * bis pro|no- * *|
w: ||||||
 D,2 D,2 G,3 F, | _E,2 C,2 D,4 | G,,2 G,2 F,3 E, | D,C, D,2 C,3 B,, | A,,G,, A,,2 G,,4 | %236
w: bis: sub Pon- ti-|o Pi- la-|to, Pi- la- *|||
w: |||||
 F,,2 F,3 E,F,D, | E,F, G,3 F, _E,2 | D,8 | z8 | z8 | z2 G,,2 B,,2 B,,2 | A,,4 G,,2 C,2- | %243
w: to pas- sus, et se-|pul- * * * tus|est|||Et re- sur-|re- xit ter-|
w: |||||||
 C,C, B,,2 A,,4- | A,,4 B,,3 C, | D,4 G,,2 G,2- | G,2 ^F,2 G,2 _E,2 | D,4 _E,4 | D,4 C,4 | %249
w: * ti- a di-||* e, se-|* cun- dum Scri-|ptu- *||
w: ||||||
 B,,4 z2 B,,2 | B,,2 B,2- B,A,G,F, | E,2 F,2 C,4 | F,,2 F,3 F, D,2 | F,2 G,G, (F,2 E,2) | %254
w: ras. Et|a- scen- * * * *|dit in cae-|lum: se- det ad|dex- te- ram Pa- *|
w: |||||
 F,2 F,,2 A,,2 B,,2 | C,2 F,,2 C,4 | D,8 | G,,2 G,2 F,2 _E,2 | D,2 B,,2 C,4 | D,2 B,,2 C,4 | %260
w: tris, ad dex- *|te- ram Pa-||tris. Et i- te-|rum ven- tu-|rus, ven- tu-|
w: ||||||
 D,2 G,,2 D,2 D,2 | _E,6 D,2 | C,4 B,,4 | z2 B,,4 B,,2 | F,2 F,2 G,4 | D,2 D,2 C,4 | C,4 D,2 D,2- | %267
w: * rus est cum|glo- *|ri- a,|ju- di-|ca- re vi-|vos et mor-|tu- os: cu-|
w: |||||||
 D,2 B,,2 F,4 | B,,4 F,4 | G,2 _E,2 D,4- | D,4 G,,2 G,2 | ^F,4 G,4 | C,8 | D,8 || D,4 D,2 G,2- | %275
w: * jus re-|gni non-|e- rit fi-|* nis, non|e- rit|fi-|nis.|Et in Spi-|
w: ||||||||
 G,G, F,2 B,2 F,2 | G,2 C,2 D,2 D,2- | D,2 D,2 C,2 G,,2 | D,4 G,,2 G,,2 | F,,2 G,3 F,E,D, | %280
w: * ri- tum San- ctum,|Do- mi- num, et|* vi- vi- fi-|can- tem: qui|ex Pa- * * *|
w: |||||
 C,4 D,2 G,,2 | A,,2 F,,2 G,,2 A,,2 | B,,3 C, D,4 | z2 G,2 A,2 B,2- | B,B, A,2 G,2 C,2 | %285
w: tre Fi- li-|o- * que pro-|ce- * dit.|Qui cum Pa-|* tre et Fi- li-|
w: |||||
 F,2 G,2 C,2 F,,2 | G,,2 C,4 B,,2 | _E,2 E,2 D,4- | D,4 C,4 | B,,3 A,, G,,4 | F,,4 z4 | %291
w: o, et Fi- li-|o si- mul|ad- o- ra-|||tur,|
w: ||||||
 z2 C,2 C,2 D,2- | D,D, C,2 A,,4- | A,,4 B,,2 G,,2 | D,4 G,,2 G,2- | G,2 D,2 _E,3 E, | %296
w: et con- glo-|* ri- fi- ca-||* tur: qui|* lo- cu- tus|
w: |||||
 D,4 D,2 G,,2 | C,8 | B,,4 z4 | z4 z2 D,2 | _E,2 F,2 B,,4 | z8 | z2 D,2 _E,2 F,2 | B,,2 B,2 B,4- | %304
w: est per Pro-|phe-|tas.|ca-|tho- li- cam,||Ec- cle- si-|am. Con- fi-|
w: ||||||||
 B,2 G,2 G,4 | _E,4 C,2 C,2 | D,8 | G,,4 z4 | z4 z2 D,2- | D,2 D,2 C,2 A,,B,, | C,D,E,F, G,2 G,,2 | %311
w: * te- or|u- num ba-|ptis-|ma|pec-|* ca- to- * *||
w: |||||||
 B,,3 A,, G,,2 F,,2 | B,,2 C,2 G,,4 | z2 D,2 D,2 F,2- | F,E,C,D, _E,3 D, | B,,C, D,3 C,A,,B,, | %316
w: |* * rum.|Et ex- spe-|||
w: |||||
 C,4 G,,2 G,2- | G,2 D,2 _E,2 E,2 | D,8 | G,,2 G,4 ^F,2 | G,2 _E,2 D,2 D,2 | _E,2 D,C, E,2 D,2- | %322
w: * cto re-|* sur- re- xi-|o-|nem mor- tu-|o- * rum. Et|vi- tam ven- tu- ri-|
w: ||||||
 D,2 C,4 =B,,2 | C,4 G,,4 | D,3 C, B,,2 G,,2 | A,,4 z2 A,2- | A,G,F,E, F,2 G,2- | %327
w: * sae- cu-|li, ven-|tu- ri sae- cu-|li. A-|* * * * men, a-|
w: |||||
 G,F,E,D, E,2 F,2- | F,E,D,C, D,2 _E,2- | E,D,C,B,, C,2 D,2- | D,C,B,,A,, B,,2 C,2 | D,8 | G,,8 || %333
w: * * * * men, a-|* * * * men, a-|* * * * men, a-|* * * * * men,|a-|men.|
w: ||||||
 z8 | z4 D,4- | D,2 D,2 C,2 A,,B,, | C,D,E,F, G,2 G,,A,, | B,,C, D,4 D,2 | C,3 B,, A,,4 | %339
w: ||||||
w: |San-|* ctus, San- * *||* * * ctus,|San- * *|
 G,,2 A,,2 B,,2 C,2 | D,4 C,2 B,,2 | _E,4 D,4 | z4 z2 C,2- | C,C, =B,,2 C,G,, B,,2- | %344
w: |||||
w: ||* ctus,|Do-|* mi- nus De- us Sa-|
 B,,2 A,,2 G,,4 | F,,4 F,,4- | F,,2 G,,2 A,,2 B,,2 | F,,4 B,,4 | B,4 B,2 B,,2 | C,4 D,4 | z8 | z8 | %352
w: ||||||||
w: * * ba|oth. Ple-||ni sunt|cae- li et|ter- ra|||
 z4 z2 A,,2 | D,3 C, B,,2 B,,2 | _E,3 D, C,2 C,2 | F,3 _E, D,2 D,2 | G,4 _E,4 | F,8 | %358
w: ||||||
w: Ho-|san- na in ex-|cel- sis, ho- san-|na in ex- cel-|||
 B,,2 B,,2 B,,4 | C,4 C,2 C,2 | D,4 _E,4 | D,8 | G,,8 || z8 | z8 | z8 | G,6 G,2 | %367
w: |||||||||
w: sis, ho- san-|na in ex-|cel- *||sis.||||A- gnus,|
 F,2 A,G, F,E,D,C, | B,,2 G,,2 A,,4- | A,,4 G,,2 G,2- | G,2 G,,2 C,2 G,,2 | D,4 G,,2 G,2- | %372
w: |||||
w: De- * * * * * *||* i, A-|* gnus De- *|* i A-|
 G,2 ^F,2 G,2 G,,2 | D,2 D,2 _E,2 D,C, | _E,2 D,2 C,4- | C,2 =B,,2 C,4 | G,,4 C,4 | %377
w: |||||
w: * gnus De- *|i qui tol- lis pec-|ca- ta mun-||* di:|
 z2 G,,3 A,,B,,G,, | A,,B,, C,2 G,,4 | D,2 C,3 B,,G,,A,, | B,,3 C, D,4 | C,3 B,, G,,A,,B,,C, | %382
w: |||||
w: mis- se- re- re|no- * * *|bis, mi- se- re- re|no- * bis,|mi- se- re- * * *|
 D,E, F,3 D,E,F, | G,A, B,3 G,A,B, | C2 C,2 G,,A,,B,,C, | D,2 G,,2 A,,4- | A,,4 B,,4 | C,4 D,4- | %388
w: ||||||
w: ||* re no- * * *|* * bis,|* no-||
 D,4 G,,4- | G,,4 z4 | z8 | z2 G,2 F,2 _E,2 | D,2 G,,2 D,4- | D,2 G,,2 D,2 G,,2 | A,,8 | %395
w: |||||||
w: * bis.|||qui tol- *|lis pec- ca-|* ta mun- *||
 D,,2 D,3 E,F,D, | E,F, G,4 F,E, | D,4 C,2 G,,2 | D,4 z2 G,,2- | G,,A,, B,,C, D,E, F,2- | %400
w: |||||
w: di: do- na no- bis|pa- * * * *||cem, do-|* * na * no- * *|
 F,2 E,2 D,4- | D,4 C,4 | D,8 | G,,8 |] %404
w: ||||
w: * bis pa-|||cem.|

